!! 00000] TT[00
!! NN
!!!OTL: Wanzi Ge
!!!ARE: Asia, Ostasien, China, ........
!! Ethnic Group: Han
!! Haozi - Artikel, Essen 1991
!!!SCT: C0000
!!!YEM: Copyright 1995, estate of Helmut Schaffrath.
**kern
*ICvox
*Ivox
*M2/4
*k[f#c#g#]
*A:
{8b
8ee
4cc#
=1
8b
16cc#
16ee
[4b
=2
8b]
24f#
24e
24d#
4e}
=3
{8cc#
16cc#
16b
8a
8b
=4
8cc#
8a
4f#
=5
2b}
=6
{8cc#
8a
16f#
16c#
8e
=7
8f#
8c#
4B
=8
2b}
=9
{8ee
8b
16cc#
16ee
8cc#
=10
2b}
=11
{8b
8ee
4cc#
=12
8b
16cc#
16ee
[4b
=13
8b]
24f#
24e
24d#
4e}
=14
{8cc#
16cc#
16b
8a
8b
=15
8cc#
8a
4f#
=16
8b
4b
8r}
=17
{4b
4ee
=18
8b
16cc#
16ee
4b
=19
2f#}
==
!!!AGN: Haozi zum Wagenziehen
!! Die Phraseneinteilung wurde hier nach musikalischen Kriterien...
!!!ONB: ESAC (Essen Associative Code) Database: CHINAx
!!!AMT: simple duple
!!!AIN: vox
!!!EED: Helmut Schaffrath
!!!EEV: 1.0
*-
!!!ONB: Tied note syntax fixed by Craig Sapp, 2004/05/03/
